X:1
T:The Cage
T:The Cage
T:James Hill
C:James Hill
L:1/8
M:4/4
K:A
V:1 treble 
V:1
|: A>B | c>Bd>c B>Ac>B | A>[CE][CE]>[CE] [CE]2 F>G | A>FB>A c>Ad>c | B>AG>A B2 e>d | %5
 c>Bd>c B>Ac>B | A>FB>A G>FE>D | C>EA>E F>ecA | [GB]2 A2 A2 :: (3efg | a>Ace a>gb>a | %11
 g>fa>g f2 (3agf | e>EG>B e>cf<e | d>ca>c B2 A>B | c>Bd>c B>Ac>B | A>FB>A G>FE>D | C>EA>E F>ecA | %17
 [GB]2 A2 A2 :| %18

